src/img/gaming/gaming9.svg

<?xml version="1.0" encoding="UTF-8" standalone="yes"?>
<svg xmlns="http://www.w3.org/2000/svg" viewBox="0 0 451.489 451.489">
  <path d="M341.24 125.698H241.167c-2.566-11.656-12.97-20.407-25.388-20.407h-27c-8.618 0-16.267 4.22-21 10.696-4.733-6.477-12.382-10.695-21-10.695h-27c-12.83 0-23.513 9.346-25.617 21.585C40.97 134.685 0 180.62 0 235.948c0 60.792 49.458 110.25 110.25 110.25h230.99c60.79 0 110.25-49.458 110.25-110.25s-49.46-110.25-110.25-110.25zm-271.5 44.466c7.913 0 14.33 6.416 14.33 14.33s-6.417 14.33-14.33 14.33c-7.915 0-14.33-6.416-14.33-14.33s6.415-14.33 14.33-14.33zm0 131.568c-7.915 0-14.33-6.416-14.33-14.33s6.415-14.33 14.33-14.33c7.913 0 14.33 6.416 14.33 14.33s-6.417 14.33-14.33 14.33zm22.573-46.49a4.226 4.226 0 0 1-4.213 4.214H51.377a4.226 4.226 0 0 1-4.213-4.213v-38.59a4.226 4.226 0 0 1 4.213-4.214H88.1a4.226 4.226 0 0 1 4.213 4.212v38.59zm232.592 33.894c0 8.25-6.75 15-15 15H142.572c-8.25 0-15-6.75-15-15V182.76c0-8.25 6.75-15 15-15h167.333c8.25 0 15 6.75 15 15v106.376zm60.572-1.67c-11.77 0-21.348-9.576-21.348-21.347 0-11.772 9.576-21.35 21.347-21.35 11.77 0 21.348 9.578 21.348 21.35 0 11.77-9.577 21.347-21.348 21.347zm0-60.34c-11.77 0-21.348-9.578-21.348-21.35 0-11.77 9.576-21.347 21.347-21.347 11.77 0 21.348 9.576 21.348 21.347 0 11.77-9.577 21.348-21.348 21.348z"/>
</svg>

<?xml version="1.0" encoding="iso-8859-1"?>
<!-- Generator: Adobe Illustrator 17.1.0, SVG Export Plug-In . SVG Version: 6.00 Build 0)  -->
<!DOCTYPE svg PUBLIC "-//W3C//DTD SVG 1.1//EN" "http://www.w3.org/Graphics/SVG/1.1/DTD/svg11.dtd">
<svg version="1.1" id="Capa_1" xmlns="http://www.w3.org/2000/svg" xmlns:xlink="http://www.w3.org/1999/xlink" x="0px" y="0px"
	 viewBox="0 0 451.489 451.489" style="enable-background:new 0 0 451.489 451.489;" xml:space="preserve">
<path d="M341.239,125.698H241.168c-2.566-11.656-12.971-20.407-25.388-20.407h-27c-8.618,0-16.267,4.218-21,10.695
	c-4.733-6.477-12.382-10.695-21-10.695h-27c-12.831,0-23.513,9.345-25.617,21.584C40.97,134.686,0,180.62,0,235.948
	c0,60.792,49.458,110.25,110.25,110.25h230.989c60.792,0,110.25-49.458,110.25-110.25S402.031,125.698,341.239,125.698z
	 M69.739,170.164c7.914,0,14.33,6.416,14.33,14.33c0,7.914-6.416,14.33-14.33,14.33c-7.914,0-14.33-6.416-14.33-14.33
	C55.409,176.58,61.825,170.164,69.739,170.164z M69.739,301.732c-7.914,0-14.33-6.416-14.33-14.33s6.416-14.33,14.33-14.33
	c7.914,0,14.33,6.416,14.33,14.33S77.653,301.732,69.739,301.732z M92.313,255.243c0,2.317-1.896,4.213-4.213,4.213H51.377
	c-2.317,0-4.213-1.896-4.213-4.213v-38.591c0-2.317,1.896-4.213,4.213-4.213H88.1c2.317,0,4.213,1.896,4.213,4.213V255.243z
	 M324.905,289.136c0,8.25-6.75,15-15,15H142.572c-8.25,0-15-6.75-15-15V182.761c0-8.25,6.75-15,15-15h167.333c8.25,0,15,6.75,15,15
	V289.136z M385.477,287.467c-11.771,0-21.348-9.577-21.348-21.348c0-11.771,9.577-21.348,21.348-21.348
	c11.771,0,21.348,9.577,21.348,21.348C406.825,277.89,397.248,287.467,385.477,287.467z M385.477,227.125
	c-11.771,0-21.348-9.577-21.348-21.348c0-11.771,9.577-21.348,21.348-21.348c11.771,0,21.348,9.577,21.348,21.348
	C406.825,217.548,397.248,227.125,385.477,227.125z"/>
<g>
</g>
<g>
</g>
<g>
</g>
<g>
</g>
<g>
</g>
<g>
</g>
<g>
</g>
<g>
</g>
<g>
</g>
<g>
</g>
<g>
</g>
<g>
</g>
<g>
</g>
<g>
</g>
<g>
</g>
</svg>
